X:1
T:Seamus Egan's Reel
T:Fermoy Lasses
D:Birkin Tree: A Cheap Present
S:Jeff Lindqvist <jeff_lindqvist:SPRAY.SE> irtrad-l 2000-11-22
Z:Lorenzo Zampetti, a flute player from Ancona, Italy
M:C|
L:1/8
K:G
|:\
GFEG BEGB | EGBE cEBE | GFEG B2GG | AF~F2 DF~F2 |
GFEG BEGB | EGBE cEBE | ~G3A AGBG | ~A3B AGFA :|
|:\
~G3A BDBA | GA (3Bcd ef g2 | ~G3A AGBG | A3B AG F2 |
~G3A BDBA | GA (3Bcd ef g2 | af ge d2 dB | AG FG ~A2 AF :|
